svg/m/NO.svg

<svg fill="none" height="15" viewBox="0 0 20 15" width="20" xmlns="http://www.w3.org/2000/svg" xmlns:xlink="http://www.w3.org/1999/xlink"><mask id="a" height="15" maskUnits="userSpaceOnUse" width="20" x="0" y="0"><path d="m0 0h20v15h-20z" fill="#fff"/></mask><mask id="b" height="15" maskUnits="userSpaceOnUse" width="20" x="0" y="0"><path clip-rule="evenodd" d="m0 0v15h20v-15z" fill="#fff" fill-rule="evenodd"/></mask><g mask="url(#a)"><path clip-rule="evenodd" d="m0 0v15h20v-15z" fill="#e31d1c" fill-rule="evenodd"/><g mask="url(#b)"><path d="m6.25-.625h-.625v.625 5.625h-5.625-.625v.625 2.5.625h.625 5.625v5.625.625h.625 2.5.625v-.625-5.625h10.625.625v-.625-2.5-.625h-.625-10.625v-5.625-.625h-.625z" fill="#2e42a5" stroke="#f7fcff" stroke-width="1.25"/></g></g></svg>

<svg width="20" height="15" viewBox="0 0 20 15" fill="none" xmlns="http://www.w3.org/2000/svg">
<mask id="mask0" mask-type="alpha" maskUnits="userSpaceOnUse" x="0" y="0" width="20" height="15">
<rect width="20" height="15" fill="white"/>
</mask>
<g mask="url(#mask0)">
<path fill-rule="evenodd" clip-rule="evenodd" d="M0 0V15H20V0H0Z" fill="#E31D1C"/>
<mask id="mask1" mask-type="alpha" maskUnits="userSpaceOnUse" x="0" y="0" width="20" height="15">
<path fill-rule="evenodd" clip-rule="evenodd" d="M0 0V15H20V0H0Z" fill="white"/>
</mask>
<g mask="url(#mask1)">
<path d="M6.25 -0.625H5.625V0V5.625H0H-0.625V6.25V8.75V9.375H0H5.625V15V15.625H6.25H8.75H9.375V15V9.375H20H20.625V8.75V6.25V5.625H20H9.375V0V-0.625H8.75H6.25Z" fill="#2E42A5" stroke="#F7FCFF" stroke-width="1.25"/>
</g>
</g>
</svg>
